X: 17
T: The Hopeless
%R: jig
B: "Twenty Four Country Dances with Figures for the Year 1810", Button & Whitaker, p.9 #1
F: http://www.vwml.org/browse/browse-collections-dance-tune-books/browse-button1810
Z: 2014 John Chambers <jc:trillian.mit.edu>
M: 6/8
L: 1/8
K: G
% - - - - - - - - - - - - - - - - - - - - - - - - - - - - -
|:\
BAB G3 | d^cd B3 | edc BAG | FGA D3 |\
BAB G3 | d^cd g3 | fed ed^c | d3 d2z :|
|:\
fga d3 | gab d2^d | edc BAG | FGA D3 |\
GFG B3 | A^GA e3 | ded cBA | G3 G2z :|
% - - - - - - - - - - Dance description - - - - - - - - - -
%%begintext align
%%  Foot it and turn your Partner and back again lead
%% down the middle up again right and left :|:
%%endtext

%%sep 1 1 500
%%sep 1 1 500
